!!!COM: Scarlatti, Domenico
!!!CDT: 1685-1757
!!!OTL: Sonata in G major, L.53, K.75
!!!SCT: K. 075
!!!SCT: L. 053
!!!OMD: Allegro ([quarter]=168)
**kern	**kern	**dynam
*staff2	*staff1	*staff1/2
*Icemba	*Icemba	*
*I"L.53 (K.75)	*I"L.53 (K.75)	*
*>[A,A,B,B]	*>[A,A,B,B]	*>[A,A,B,B]
*>norep[A,B]	*>norep[A,B]	*>norep[A,B]
*>A	*>A	*>A
*clefF4	*clefG2	*
*k[f#]	*k[f#]	*
*G:	*G:	*
*M3/4	*M3/4	*
*MM168	*MM168	*
=1-	=1-	=1-
2G 2B 2d	4gg'	f
.	(4.aaT	.
4F#' 4A' 4d'	.	.
.	16ggLL	.
.	16aaJJ	.
=2	=2	=2
2G 2B 2d	12bL	.
.	12cc	.
.	12ddJ	.
.	2gg)	.
4B' 4d'	.	.
=3	=3	=3
*	*Xtuplet	*
2c 2e	(12aL	p
.	12b	.
.	12ccJ	.
.	2ee)	.
4A' 4c'	.	.
=4	=4	=4
2D 2A 2d	(<12f#L	.
.	12g	.
.	12aJ	.
.	2cc)	.
4F#' 4A' 4d'	.	.
!!LO:LB:g=z
=5	=5	=5
2G 2B	(<12dL	.
.	12e	.
.	12f#J	.
.	2b)	.
4B' 4d'	.	.
=6	=6	=6
(4C	(<12eL	f >
.	12f#	.
.	12gJ	.
4c')	4ee')	]
4B' 4d'	4dd'	p
=7	=7	=7
4r	(12aL	f >
.	12b	.
.	12cc#J	.
4c#' 4e'	4gg')	]
4d' 4f#'	4ff#'	p
=8	=8	=8
4r	(12bL	f >
.	12cc#	.
.	12ddJ	.
4G' 4B' 4d'	4bb')	]
4F#' 4A' 4d'	4aa'	p
!!LO:LB:g=z
=9	=9	=9
*^	*	*
4d^	2.E	(<12g#L	f >
.	.	12a	.
.	.	12bJ	.
4d'	.	4ffn')	]
4cn'	.	4ee'	p
=10	=10	=10	=10
(4B	2.E	(<12g#L	f >
.	.	12a	.
.	.	12bJ	.
4fn')	.	4dd')	]
4e'	.	4cc'	p
=11	=11	=11	=11
4r	2.E	(<12g#L	f
.	.	12a	.
.	.	12bJ	.
4d'	.	4ffn')	.
4c'	.	4ee'	p
=12	=12	=12	=12
4rA	2.AA	(12cc#L	f
.	.	12dd	.
.	.	12eeJ	.
4G'	.	4bb-')	.
4Fn'	.	4aa'	.
!!LO:LB:g=z
=13	=13	=13	=13
(4E	2.AA	(12cc#L	.
.	.	12dd	.
.	.	12eeJ	.
4B-')	.	4gg')	.
4A'	.	4ffn'	.
=14	=14	=14	=14
4rA	2.AA	(12cc#L	.
.	.	12dd	.
.	.	12eeJ	.
4G'	.	4bb-')	.
4Fn'	.	4aa'	.
*v	*v	*	*
=15	=15	=15
4AA'^ 4C#'^ 4E'^	(12ggL	.
.	12ff#X	.
.	12eeJ)	.
4r	(12eeL	.
.	12dd	.
.	12cc#J)	.
4r	(12cc#L	.
.	12b	.
.	12aJ	.
=16	=16	=16
2.r	12gL	.
.	12f#	.
.	12eJ	.
.	(12eL)	.
.	12d	.
.	12c#J)	.
.	(12c#L	.
.	12B	.
.	12AJ)	.
!!LO:LB:g=z
=17	=17	=17
*Xtuplet	*	*
(12GL	2.r	.
12F#	.	.
12EJ)	.	.
(12EL	.	.
12D	.	.
12C#J)	.	.
(12C#L	.	.
12BB	.	.
12AAJ)	.	.
=18	=18	=18
*ped	*	*
4AA' 4C#' 4E' 4A'	(4gg.T	.
4C#' 4E' 4A'	.	.
.	16ff#LL	.
.	16eeJJ	.
*Xped	*	*
4D' 4F#' 4A'	12ff#L	.
.	12ee	.
.	12ddJ	.
=19	=19	=19
4GG'\ 4D'\ 4G'\	8bb'L)	.
.	(8ddJ	.
4AA' 4D' 4A'	4a' 4dd' 4ff#')	.
4AA' 4E' 4A'	4a' 4cc#' 4ee'	.
=20	=20	=20
2.DD^ 2.D^	2.f#^ 2.a^ 2.dd^	.
!!LO:LB:g=z
=21:|!|:	=21:|!|:	=21:|!|:
*>B	*>B	*>B
2D 2F# 2A	4dd'	f
.	(4.eeT	.
4C#' 4E' 4A'	.	.
.	16ddLL	.
.	16eeJJ	.
=22	=22	=22
2D 2F# 2A	12ff#L	.
.	12gg	.
.	12aaJ	.
.	2ccn)	.
4F#' 4A' 4d'	.	.
=23	=23	=23
2G 2B 2d	(12bL	.
.	12cc	.
.	12ddJ	.
.	2fn)	.
4B' 4d'	.	.
=24	=24	=24
(<4C	(12eL	f >
.	12f#X	.
.	12gJ	.
4c')	4ee')	]
4B' 4d'	4dd'	p
!!LO:LB:g=z
=25	=25	=25
4r	(<12f#L	p
.	12g	.
.	12aJ	.
4A' 4c'	4cc')	.
4G' 4B'	4b'	.
=26	=26	=26
4r	(12ggL	f
.	12aa	.
.	12bbJ	.
4E' 4G' 4c#'	4cc#')	sf
4F#' 4A' 4d'	4dd'	.
=27	=27	=27
4r	(12gL	.
.	12a	.
.	12bJ	.
4G' 4A'	4c#')	.
4F#' 4A'	4d'	.
=28	=28	=28
2E 2G	(12cnL	p
.	12d	.
.	12eJ	.
.	12f#L	<
.	12g	.
.	12aJ)	.
4E' 4G' 4c'	(12aL>	.
.	12b	.
.	12ccJ)	.
!!LO:LB:g=z
=29	=29	=29
4D' 4G' 4A' 4c'	(12ccL	.
.	12dd	.
.	12eeJ	.
4r	12ff#L	.
.	12gg	.
.	12aaJ)	.
4r	(12aaL	.
.	12bb	.
.	12cccJ)	.
=30	=30	=30
4D' 4G' 4A' 4c'	(4.cccT	f
4D' 4F#' 4A' 4d'	.	.
.	16bb-LL	.
.	16aaJJ	.
4D' 4G' 4B-' 4d'	12bb-L	.
.	12aa	.
.	12ggJ	.
=31	=31	=31
4D' 4G' 4A' 4c'	12ff#XL	.
.	12gg	.
.	12aaJ	.
4D' 4F#' 4A' 4d'	12ee-L	.
.	12dd	.
.	12ccJ	.
4D' 4G' 4B-' 4d'	12b-L	.
.	12a	.
.	12gJ	.
=32	=32	=32
*^	*	*
4G^ 4A^ 4c^	2.D	12f#XL	>
.	.	12g	.
.	.	12aJ	.
4A' 4c'	.	4ee-')	]
4G' 4B-'	.	4dd'	p
!!LO:LB:g=z
=33	=33	=33	=33
(4A	2.D	(<12f#L	f >
.	.	12g	.
.	.	12aJ	.
4e-')	.	4cc')	]
4d'	.	4b-'	p
=34	=34	=34	=34
4rc	2.D	(<12f#L	f >
.	.	12g	.
.	.	12aJ	.
4c'	.	4ee-')	]
4B-'	.	4dd'	p
=35	=35	=35	=35
4rA	2.GG	(12bnL	f
.	.	12cc	.
.	.	12ddJ	.
4Fn'	.	4aa-')	.
4E-'	.	4gg'	.
=36	=36	=36	=36
4rA	2.GG	(12bL	.
.	.	12cc	.
.	.	12ddJ	.
4D'	.	4ffn')	.
4C'	.	4ee-'	.
!!LO:LB:g=z
=37	=37	=37	=37
4rA	2.AA	(12cc#L	.
.	.	12dd	.
.	.	12eenJ	.
4G'	.	4bb-')	.
4Fn'	.	4aa'	.
=38	=38	=38	=38
4rA	2.AA	(12cc#L	.
.	.	12dd	.
.	.	12eeJ	.
4E'	.	4gg')	.
4D' 4F#X'	.	4ff#X'	.
*v	*v	*	*
=39	=39	=39
4D'	(12cccL	.
.	12bb	.
.	12aaJ)	.
4r	(12aaL	.
.	12gg	.
.	12ff#J)	.
4r	(12ff#L	.
.	12ee	.
.	12ddJ	.
=40	=40	=40
2.r	12ccL	.
.	12b	.
.	12aJ)	.
.	(12aL	.
.	12g	.
.	12f#J)	.
.	(12f#L	.
.	12e	.
.	12dJ)	.
!!LO:LB:g=z
=41	=41	=41
(12cL	2.r	.
12B	.	.
12AJ)	.	.
(12AL	.	.
12G	.	.
12F#J)	.	.
(12F#L	.	.
12E	.	.
12DJ)	.	.
=42	=42	=42
4D' 4A' 4d'	(4.ccc	.
4F#' 4A' 4d'	.	.
.	16bbLL	.
.	16aaJJ	.
4G' 4B' 4d'	12bbL	.
.	12aa	.
.	12ggJ	.
=43	=43	=43
4C' 4G' 4c'	4ee 4gg 4ccc)	.
4D' 4G' 4d'	4dd' 4gg' 4bb'	.
4D' 4A' 4d'	4dd' 4ff#' 4aa'	.
=44	=44	=44
2.GG^ 2.D^ 2.G^	2.b^ 2.dd^ 2.gg^	.
==:|!	==:|!	==:|!
*-	*-	*-
!!!RDF**kern: > = above
!!!RDF**kern: < = below
!!!PTL: Domenico Scarlatti: Opere complete per clavicembalo
!!!PED: Longo, Alessandro
!!!PPR: Ricordi
!!!PPP: Milan
!!!PDT: 1906-1913
!!!ENC: Craig Stuart Sapp
!!!END: 2005/06/20
!!!EED: Craig Stuart Sapp
!!!EEV: 2020/06/13
